modules/themify-icons/icons/headphone.svg

<?xml version="1.0" encoding="utf-8"?>
<!-- Generated by IcoMoon.io -->
<!DOCTYPE svg PUBLIC "-//W3C//DTD SVG 1.1//EN" "http://www.w3.org/Graphics/SVG/1.1/DTD/svg11.dtd">
<svg version="1.1" xmlns="http://www.w3.org/2000/svg" xmlns:xlink="http://www.w3.org/1999/xlink" width="17" height="17" viewBox="0 0 17 17">
<g>
</g>
	<path d="M15.981 8.085c-0.192-4.493-3.469-8.085-7.481-8.085s-7.289 3.592-7.481 8.085c-0.59 0.201-1.019 0.756-1.019 1.415v4c0 0.827 0.67 1.5 1.494 1.5h1.506v-1h1v-5h-1v-1h-0.978c0.225-3.902 3.040-7 6.478-7s6.253 3.098 6.478 7h-0.978v1h-1v5h1v1h1.506c0.824 0 1.494-0.673 1.494-1.5v-4c0-0.659-0.429-1.214-1.019-1.415zM2 14h-0.506c-0.272 0-0.494-0.225-0.494-0.5v-4c0-0.275 0.222-0.5 0.494-0.5h0.506v5zM16 13.5c0 0.275-0.222 0.5-0.494 0.5h-0.506v-5h0.506c0.272 0 0.494 0.225 0.494 0.5v4z" fill="#000000" />
</svg>

<svg xmlns="http://www.w3.org/2000/svg" width="17" height="17"><path d="M15.981 8.085C15.789 3.592 12.512 0 8.5 0S1.211 3.592 1.019 8.085A1.498 1.498 0 0 0 0 9.5v4c0 .827.67 1.5 1.494 1.5H3v-1h1V9H3V8h-.978c.225-3.902 3.04-7 6.478-7s6.253 3.098 6.478 7H14v1h-1v5h1v1h1.506C16.33 15 17 14.327 17 13.5v-4c0-.659-.429-1.214-1.019-1.415zM2 14h-.506A.498.498 0 0 1 1 13.5v-4c0-.275.222-.5.494-.5H2v5zm14-.5c0 .275-.222.5-.494.5H15V9h.506c.272 0 .494.225.494.5v4z"/></svg>
